X:250
T: Paddy Corley's
S: Luke O'Malley Volume 1
Z: B.Black
M: 4/4
L: 1/8
R: reel
K: Dm
ADDF (3EFG cG|ADDF EC C2|ADDF (3EFG cG|\
(3ABc Gc Ad d2|
ADDF (3EFG cG|ADDF ECCG|ADDF (3EFG cG|\
(3A=Bc GE D2 (3GAB ||
c2 gc acgc|c2 gc Ad^cd|c2 gc acgG|\
(3A=Bc GE D2 (3GAB|
c2 gc Gcgc|Gcgc Ad d2|(3EFG A=B c2 Gc|\
(3A=Bc GE D2 ||
